X:1067
T:Arkansas Traveller, The
R:reel
O:American
Z:id:hn-reel-1067
M:C|
L:1/8
K:D
dfed B2B2 | A2A2 d4 | e2e2 f2f2 | efed B2A2 |
dfed B2B2 | A2A2 d4 | dcdA BdAG | FAEA D4 :|
|: agfa gfeg | fedf edcA | dcdf edeg | fedf e2fg |
agfa gfeg | fedf edcA | dcdA BdAG | FAEA D4 :|

